X: 99
P: No. XCIX.
M: 3/4
L: 1/8
K: G
V: 1
|: G2 |\
(=f>g)(f>g()f>g) | (e>d)(e>g)(e>g) | d2(ed)(cB) | A4GA |\
V: 2 clef=bass middle=d
z2 |\
g2G2z2 | g2d2e2 | z2d2d2 | d4z2 |\
g2z2z2 | g2G2z2 | z2B2d2 | g2G2 :|
|: z2 |\
z2z2g2 | b2d'2d'2 | g2B2d2 | G4z2 |
g2b2g2 | d2d2D2 | G2B2d2 | g2G2z2 |\
g2b2g2 | c'2c2c'2 | b2c'bag | d2D2z2 |\
g2z2z2 | g2G2z2 | z2B2d2 | G4 |]

